packages/elvis-assets-icons/icons/svg/src/mail_monitor-color.svg

<svg width="24" height="24" viewBox="0 0 24 24" fill="none" xmlns="http://www.w3.org/2000/svg">
<path d="M6.75 23.25C6.336 23.25 6 22.914 6 22.5C6 22.086 6.336 21.75 6.75 21.75H8.365L8.865 18.75H3.75C1.682 18.75 0 17.068 0 15V4.5C0 2.432 1.682 0.75 3.75 0.75H20.25C22.318 0.75 24 2.432 24 4.5V15C24 17.068 22.318 18.75 20.25 18.75H15.135L15.635 21.75H17.25C17.664 21.75 18 22.086 18 22.5C18 22.914 17.664 23.25 17.25 23.25H6.75ZM14.115 21.75L13.615 18.75H10.386L9.886 21.75H14.115ZM3.75 2.25C2.509 2.25 1.5 3.259 1.5 4.5V15C1.5 16.241 2.509 17.25 3.75 17.25H20.25C21.491 17.25 22.5 16.241 22.5 15V4.5C22.5 3.259 21.491 2.25 20.25 2.25H3.75Z" fill="black"/>
<path d="M7.625 14.75C6.17717 14.75 5 13.6289 5 12.25V7.25C5 6.66 5.22167 6.08778 5.62533 5.63556C5.63 5.62778 5.63583 5.62111 5.6405 5.61444C5.66033 5.59222 5.68133 5.57222 5.7035 5.55222C6.1865 5.04778 6.89233 4.75 7.625 4.75H16.375C17.1205 4.75 17.8333 5.05556 18.3327 5.58889C18.3385 5.59556 18.3595 5.61778 18.3642 5.62333C18.7702 6.06556 19 6.64778 19 7.25V12.25C19 13.6289 17.8228 14.75 16.375 14.75H7.625ZM6.75 12.25C6.75 12.71 7.142 13.0833 7.625 13.0833H16.375C16.858 13.0833 17.25 12.71 17.25 12.25V7.55778L12.5553 11.2278C12.399 11.35 12.2018 11.4167 12 11.4167C11.7982 11.4167 11.601 11.35 11.4447 11.2278L6.75 7.55778V12.25ZM12 9.50556L15.9515 6.41667H8.0485L12 9.50556Z" fill="#29D305"/>
</svg>

<svg width="24" height="24" fill="none" xmlns="http://www.w3.org/2000/svg"><path d="M6.75 23.25a.75.75 0 010-1.5h1.615l.5-3H3.75A3.754 3.754 0 010 15V4.5A3.754 3.754 0 013.75.75h16.5A3.754 3.754 0 0124 4.5V15a3.754 3.754 0 01-3.75 3.75h-5.115l.5 3h1.615a.75.75 0 010 1.5H6.75zm7.365-1.5l-.5-3h-3.229l-.5 3h4.229zM3.75 2.25A2.252 2.252 0 001.5 4.5V15a2.252 2.252 0 002.25 2.25h16.5A2.252 2.252 0 0022.5 15V4.5a2.252 2.252 0 00-2.25-2.25H3.75z" fill="#000"/><path fill-rule="evenodd" clip-rule="evenodd" d="M6.857 6.5a.107.107 0 00-.107.107V12.8c0 .06.048.107.107.107h10.286c.059 0 .107-.048.107-.107V6.607a.107.107 0 00-.107-.107H6.857zm-1.607.107C5.25 5.72 5.97 5 6.857 5h10.286c.887 0 1.607.72 1.607 1.607V12.8c0 .888-.72 1.607-1.607 1.607H6.857c-.887 0-1.607-.72-1.607-1.607V6.607z" fill="#29D305"/><path fill-rule="evenodd" clip-rule="evenodd" d="M18.4 6.071a.75.75 0 01-.136 1.052l-4.654 3.58a2.64 2.64 0 01-3.22 0l-4.654-3.58a.75.75 0 11.915-1.189l4.654 3.58a1.14 1.14 0 001.39 0l4.654-3.58a.75.75 0 011.052.137z" fill="#29D305"/></svg>
